Numix-Circle/48x48/applications/mypaint.svg

<?xml version="1.0" encoding="UTF-8" standalone="no"?>
<svg
   xmlns:dc="http://purl.org/dc/elements/1.1/"
   xmlns:cc="http://creativecommons.org/ns#"
   xmlns:rdf="http://www.w3.org/1999/02/22-rdf-syntax-ns#"
   xmlns:svg="http://www.w3.org/2000/svg"
   xmlns="http://www.w3.org/2000/svg"
   xmlns:xlink="http://www.w3.org/1999/xlink"
   xmlns:sodipodi="http://sodipodi.sourceforge.net/DTD/sodipodi-0.dtd"
   xmlns:inkscape="http://www.inkscape.org/namespaces/inkscape"
   width="48"
   viewBox="0 0 13.546667 13.546667"
   height="48"
   id="svg2"
   version="1.1"
   inkscape:version="0.48.4 r9939"
   sodipodi:docname="mypaint.svg">
  <metadata
     id="metadata34">
    <rdf:RDF>
      <cc:Work
         rdf:about="">
        <dc:format>image/svg+xml</dc:format>
        <dc:type
           rdf:resource="http://purl.org/dc/dcmitype/StillImage" />
      </cc:Work>
    </rdf:RDF>
  </metadata>
  <sodipodi:namedview
     pagecolor="#ffffff"
     bordercolor="#666666"
     borderopacity="1"
     objecttolerance="10"
     gridtolerance="10"
     guidetolerance="10"
     inkscape:pageopacity="0"
     inkscape:pageshadow="2"
     inkscape:window-width="1366"
     inkscape:window-height="742"
     id="namedview32"
     showgrid="false"
     inkscape:zoom="256"
     inkscape:cx="12.066907"
     inkscape:cy="27.434562"
     inkscape:window-x="0"
     inkscape:window-y="26"
     inkscape:window-maximized="1"
     inkscape:current-layer="svg2" />
  <defs
     id="defs4">
    <linearGradient
       id="linearGradient4460">
      <stop
         offset="0"
         style="stop-color:#3d3d3d"
         id="stop7" />
      <stop
         offset="1"
         style="stop-color:#5b5b5b"
         id="stop9" />
    </linearGradient>
    <linearGradient
       gradientTransform="matrix(1.10525 0 0 1.10525 -134.27874 -295.76183)"
       xlink:href="#linearGradient4460"
       id="linearGradient3780"
       y1="279.096"
       y2="268.33"
       gradientUnits="userSpaceOnUse"
       x2="0" />
  </defs>
  <g
     style="fill-rule:evenodd"
     id="g12">
    <rect
       width="12.982"
       x=".282"
       y=".282"
       rx="6.491"
       height="12.982"
       style="opacity:.5;fill:#fff"
       id="rect14" />
    <rect
       width="11.853"
       x=".847"
       y=".847"
       rx="5.926"
       height="11.853"
       style="fill:url(#linearGradient3780)"
       id="rect16" />
    <rect
       width="6.773"
       x="3.387"
       y="3.387"
       rx=".33"
       height="6.773"
       ry=".468"
       style="fill:#f9f9f9"
       id="rect18" />
    <g
       style="color:#000"
       id="g20">
      <path
         style="fill:#754a0f"
         d="M 7.1092582,6.4073563 7.5703457,6.8377551 C 8.3854409,6.0379835 9.5870259,4.1225176 9.5870259,4.1225176 9.6357335,3.9838642 9.4637274,3.896498 9.3776413,3.9899679 c 0,0 -1.5525169,1.5963838 -2.2683831,2.4173884 z"
         id="path22" />
      <path
         style="fill:#2d2d2d"
         d="M 6.2472251,7.5655048 6.501968,7.7844922 7.4650865,6.9502384 7.4962796,6.8703008 7.6203902,6.8682625 C 7.5707757,6.6913219 7.2868091,6.3718775 7.0741755,6.3718775 l 0.0093,0.1234338 -0.07598,0.043043 -0.7602717,1.0271276 z"
         id="path24" />
      <g
         style="fill:#367ed3"
         id="g26">
        <path
           d="m 5.0800001,8.4612489 c 0.7490726,0 1.3175554,0.089076 1.4251806,-0.4551307 C 6.5919117,7.5675658 5.9880192,7.357434 5.6887664,7.7489456 5.4004916,8.1260867 5.0800001,8.4612489 5.0800001,8.4612489 z"
           id="path28" />
        <path
           style="line-height:normal"
           d="m 16.1875,14.6875 c -0.159872,-0.0079 -0.309489,0.02268 -0.46875,0.0625 -0.676253,0.169063 -1.19867,0.641325 -1.5625,1.25 -0.139924,0.234089 -0.176163,0.571399 -0.28125,0.84375 -0.06292,-0.170386 -0.110087,-0.424788 -0.1875,-0.5625 -0.113553,-0.202003 -0.249507,-0.391447 -0.53125,-0.5 C 12.874507,15.672697 12.523421,15.816876 12.34375,16 12.208997,16.137343 12.093434,16.30676 12,16.5 l 0,4.4375 c 0.193555,-1.230117 0.389322,-2.259426 0.5625,-2.9375 0.145953,-0.571476 0.244053,-0.703666 0.34375,-0.90625 0.104574,0.259154 0.236278,0.535348 0.34375,1.03125 0.06819,0.314631 0.06336,0.841898 0.125,1.21875 -0.159392,1.412774 -0.277146,2.920266 -0.1875,4.375 0.113326,1.83896 0.337195,3.498851 0.5625,4.46875 0.05632,0.242476 0.128263,0.429896 0.1875,0.59375 0.02962,0.08193 0.04988,0.172331 0.09375,0.25 0.04387,0.07767 0.08182,0.184302 0.3125,0.28125 0.115338,0.04848 0.305532,0.03381 0.4375,-0.03125 0.131967,-0.06504 0.180812,-0.155187 0.21875,-0.21875 0.07587,-0.127127 0.07818,-0.192873 0.09375,-0.28125 0.03115,-0.176754 0.0625,-0.372472 0.0625,-0.65625 0,-2.265557 -0.324014,-6.332143 -0.8125,-9.15625 0.02548,-0.172219 -2.95e-4,-0.399485 0.03125,-0.5625 0.147097,-0.760198 0.383031,-1.417914 0.65625,-1.875 0.273221,-0.457086 0.568519,-0.720255 0.9375,-0.8125 0.156069,-0.03902 0.194638,-0.01229 0.21875,0 0.02413,0.01229 0.0755,0.04258 0.125,0.15625 0.099,0.227346 0.145633,0.738653 0.125,1.34375 -0.04127,1.210194 -0.321192,2.766158 -0.3125,3.84375 0.02381,2.953272 0.08761,4.760226 0.1875,5.78125 0.04994,0.510512 0.05613,0.78778 0.21875,1.09375 0.04066,0.07649 0.116107,0.165194 0.28125,0.25 0.165143,0.08481 0.409299,0.0508 0.53125,-0.03125 0.2439,-0.164091 0.264113,-0.279613 0.3125,-0.40625 0.193553,-0.506548 0.306911,-1.37275 0.46875,-2.5 0.03125,-0.217757 0.06246,-0.487066 0.09375,-0.71875 -0.04534,1.637628 -0.07171,2.953197 -0.15625,5.373575 l 1,0.03125 c 0.148946,-4.264112 0.247925,-7.397282 0.28125,-9.373575 0.01665,-0.988146 0.0074,-1.714936 0,-2.25 -0.0074,-0.535064 -0.01637,-0.824846 -0.0625,-1.0625 -0.01152,-0.05941 -0.0034,-0.110707 -0.0625,-0.21875 -0.02952,-0.05402 -0.08254,-0.143635 -0.21875,-0.21875 -0.136212,-0.07512 -0.380613,-0.06458 -0.5,0 -0.238773,0.129157 -0.223638,0.220571 -0.25,0.28125 -0.02636,0.06068 -0.04763,0.101981 -0.0625,0.15625 -0.0595,0.217078 -0.09651,0.504471 -0.15625,0.90625 -0.119476,0.803557 -0.253791,1.991843 -0.40625,3.25 -0.125498,1.035666 -0.243078,2.090048 -0.375,3.0625 -0.04178,-1.008264 -0.110791,-1.644375 -0.125,-3.40625 -0.0071,-0.879125 0.26721,-2.484346 0.3125,-3.8125 0.02265,-0.664077 0.0047,-1.267995 -0.21875,-1.78125 -0.111749,-0.256628 -0.285002,-0.514646 -0.5625,-0.65625 -0.138749,-0.0708 -0.308878,-0.117122 -0.46875,-0.125 z"
           transform="scale(0.28222,0.28222)"
           id="path30"
           inkscape:connector-curvature="0"
           sodipodi:nodetypes="ssscsssccscscsscsccccsccscccsssssssccccssccscsssscsssss" />
      </g>
    </g>
  </g>
</svg>

<svg width="48" xmlns="http://www.w3.org/2000/svg" viewBox="0 0 13.546667 13.546667" height="48" xmlns:xlink="http://www.w3.org/1999/xlink">
<defs>
<linearGradient id="linearGradient4460">
<stop offset="0" style="stop-color:#3d3d3d"/>
<stop offset="1" style="stop-color:#5b5b5b"/>
</linearGradient>
<linearGradient gradientTransform="matrix(1.10525 0 0 1.10525 -134.27874 -295.76183)" xlink:href="#linearGradient4460" id="linearGradient3780" y1="279.096" y2="268.33" gradientUnits="userSpaceOnUse" x2="0"/>
</defs>
<g style="fill-rule:evenodd">
<rect width="12.982" x=".282" y=".282" rx="6.491" height="12.982" style="opacity:.5;fill:#fff"/>
<rect width="11.853" x=".847" y=".847" rx="5.926" height="11.853" style="fill:url(#linearGradient3780)"/>
<rect width="6.773" x="3.387" y="3.387" rx=".33" height="6.773" ry=".468" style="fill:#f9f9f9"/>
<g style="color:#000">
<path style="fill:#754a0f" d="M 7.1092582,6.4073563 7.5703457,6.8377551 C 8.3854409,6.0379835 9.5870259,4.1225176 9.5870259,4.1225176 9.6357335,3.9838642 9.4637274,3.896498 9.3776413,3.9899679 c 0,0 -1.5525169,1.5963838 -2.2683831,2.4173884 z"/>
<path style="fill:#2d2d2d" d="M 6.2472251,7.5655048 6.501968,7.7844922 7.4650865,6.9502384 7.4962796,6.8703008 7.6203902,6.8682625 C 7.5707757,6.6913219 7.2868091,6.3718775 7.0741755,6.3718775 l 0.0093,0.1234338 -0.07598,0.043043 -0.7602717,1.0271276 z"/>
<g style="fill:#367ed3">
<path d="m 5.0800001,8.4612489 c 0.7490726,0 1.3175554,0.089076 1.4251806,-0.4551307 C 6.5919117,7.5675658 5.9880192,7.357434 5.6887664,7.7489456 5.4004916,8.1260867 5.0800001,8.4612489 5.0800001,8.4612489 z"/>
<path style="line-height:normal" d="M 16.1875 14.6875 C 16.027628 14.679622 15.878011 14.710185 15.71875 14.75 C 15.042497 14.919063 14.52008 15.391325 14.15625 16 C 14.016326 16.234089 13.980087 16.571399 13.875 16.84375 C 13.812079 16.673364 13.764913 16.418962 13.6875 16.28125 C 13.573947 16.079247 13.437993 15.889803 13.15625 15.78125 C 12.874507 15.672697 12.523421 15.816876 12.34375 16 C 12.208997 16.137343 12.093434 16.30676 12 16.5 L 12 20.9375 C 12.193555 19.707383 12.389322 18.678074 12.5625 18 C 12.708453 17.428524 12.806553 17.296334 12.90625 17.09375 C 13.010824 17.352904 13.142528 17.629098 13.25 18.125 C 13.318187 18.439631 13.313364 18.966898 13.375 19.34375 C 13.215608 20.756524 13.097854 22.264016 13.1875 23.71875 C 13.300826 25.55771 13.524695 27.217601 13.75 28.1875 C 13.806324 28.429976 13.878263 28.617396 13.9375 28.78125 C 13.967122 28.863178 13.987384 28.953581 14.03125 29.03125 C 14.075116 29.108919 14.113074 29.215552 14.34375 29.3125 C 14.459088 29.360976 14.649282 29.346305 14.78125 29.28125 C 14.913217 29.216209 14.962062 29.126063 15 29.0625 C 15.075873 28.935373 15.078181 28.869627 15.09375 28.78125 C 15.124896 28.604496 15.15625 28.408778 15.15625 28.125 C 15.15625 25.859443 14.832236 21.792857 14.34375 18.96875 C 14.369226 18.796531 14.343455 18.569265 14.375 18.40625 C 14.522097 17.646052 14.758031 16.988336 15.03125 16.53125 C 15.304471 16.074164 15.599769 15.810995 15.96875 15.71875 C 16.124819 15.679731 16.163388 15.706455 16.1875 15.71875 C 16.21163 15.731045 16.263 15.761327 16.3125 15.875 C 16.411496 16.102346 16.458133 16.613653 16.4375 17.21875 C 16.396231 18.428944 16.116308 19.984908 16.125 21.0625 C 16.148811 24.015772 16.212614 25.822726 16.3125 26.84375 C 16.362443 27.354262 16.36863 27.63153 16.53125 27.9375 C 16.571906 28.013993 16.647357 28.102694 16.8125 28.1875 C 16.977643 28.272306 17.221799 28.238295 17.34375 28.15625 C 17.58765 27.992159 17.607863 27.876637 17.65625 27.75 C 17.849803 27.243452 17.963161 26.37725 18.125 25.25 C 18.156252 25.032243 18.187456 24.762934 18.21875 24.53125 C 18.173413 26.168878 18.147043 27.329622 18.0625 29.75 L 19.0625 29.78125 C 19.211446 25.517138 19.310425 22.538793 19.34375 20.5625 C 19.360404 19.574354 19.35112 18.847564 19.34375 18.3125 C 19.33638 17.777436 19.32738 17.487654 19.28125 17.25 C 19.269734 17.190586 19.277801 17.139293 19.21875 17.03125 C 19.189234 16.977229 19.136212 16.887615 19 16.8125 C 18.863788 16.737385 18.619387 16.747923 18.5 16.8125 C 18.261227 16.941657 18.276362 17.033071 18.25 17.09375 C 18.223638 17.154429 18.202375 17.195731 18.1875 17.25 C 18.127998 17.467078 18.090988 17.754471 18.03125 18.15625 C 17.911774 18.959807 17.777459 20.148093 17.625 21.40625 C 17.499502 22.441916 17.381922 23.496298 17.25 24.46875 C 17.208224 23.460486 17.139209 22.824375 17.125 21.0625 C 17.11791 20.183375 17.39221 18.578154 17.4375 17.25 C 17.460145 16.585923 17.442249 15.982005 17.21875 15.46875 C 17.107001 15.212122 16.933748 14.954104 16.65625 14.8125 C 16.517501 14.741698 16.347372 14.695378 16.1875 14.6875 z " transform="scale(.28222)"/>
</g>
</g>
</g>
</svg>
